X:1
T:Title
%%score { 1 | 2 }
L:1/8
Q:1/4=100
M:4/4
K:Ab
V:1 treble nm="Grand Piano"
V:2 bass 
V:1
 [CE]>[_C=D] [=CE]>[DF] [CE]>[CE] [A,C]>[B,_D] | [CE]2 [CA]>[DB] [EAc]4 | B>=A B>[Ec] B>_A G>A | %3
w: Powell~G.~Fithian * * * * * * *|||
 B>=A B>c d4 | [CE]>[_C=D] [=CE]>[DF] [CE]>[CE] [A,C]>[B,_D] | [CE]2 [CA]>[DB] [Ec]4 | %6
w: |||
 [EB]>[E=A] [EB]>[Ec] [=DB]>[D_A] [B,DG]>[A,DF] |[M:3/4] [G,E]2 [A,=DG]>[A,DF] [G,E]2 | %8
w: ||
[M:1/4] E>E |[M:4/4] d2 d2 d2 e2 | d>c c>_c =c4 | c>B B>=A B4 | %12
w: ||||
 [DB]>[CA] [CA]>[DF][K:bass] [E,CE]2 E>[K:treble]E | d2 d2 d2 e2 | d>c c>_c =c4 | B>A G>F E>F G>A | %16
w: ||||
 [=DF]2 [_DG]2 [CA]4 |] %17
w: |
V:2
 [A,,A,]>[A,,A,] [A,,A,]>[A,,A,] [A,,A,]>[A,,A,] [A,,E,]>[A,,E,] | %1
 [A,,E,]2 [A,,E,]>[A,,E,] [A,,E,]4 | [E,D]>[E,C] [E,D]>[G,,E,] [E,D]>[E,C] [E,B,]>[E,C] | %3
 [E,G,E]>[E,_G,E] [E,=G,E]>[E,A,E] [E,B,E]4 | %4
 [A,,A,]>[A,,A,] [A,,A,]>[A,,A,] [A,,A,]>[A,,A,] [A,,E,]>[A,,E,] | %5
 [A,,E,]2 [A,,E,]>[A,,E,] [A,,E,]4 | [B,,G,]>[B,,G,] [B,,G,]>[B,,G,] [B,,F,]>[B,,F,] B,,>B,, | %7
[M:3/4] E,2 B,,>B,, E,2 |[M:1/4] E,>E, |[M:4/4] [E,G,E]2 [F,A,E]2 [G,B,E]2 [E,G,E]2 | %10
 [A,F]>[A,E] [A,E]>[A,=D] [A,E]4 | [E,G,E]>[E,G,D] [E,G,D]>[E,G,C] [E,G,D]4 | %12
 [A,,E,]>[A,,E,] [A,,E,]>[A,,E,] A,,2 E,>E, | [E,G,E]2 [F,A,E]2 [G,B,E]2 [E,G,E]2 | %14
 [A,F]>[A,E] [A,E]>[A,=D] [A,E]4 | B,>A, G,>F, [E,C]>[E,_C=D] [E,B,_D]>[E,A,=C] | %16
 [B,,A,B,]2 [E,B,]2 [A,,A,]4 |] %17

